db/seeds/files/goal_filters/focused.svg

<svg viewBox="0 0 91 91" xmlns="http://www.w3.org/2000/svg"><g fill="#a4d9d1"><path d="m70.73 37.32a14.75 14.75 0 0 1 -11.73 11.68l.32 1.69a16.43 16.43 0 0 0 13.11-13.05z"/><path d="m41.92 37.32-1.69.32a16.43 16.43 0 0 0 13.06 13.07l.32-1.71a14.75 14.75 0 0 1 -11.69-11.68z"/><path d="m67.91 23a16.31 16.31 0 0 0 -8.55-4.52l-.36 1.72a14.75 14.75 0 0 1 11.73 11.69l1.69-.32a16.31 16.31 0 0 0 -4.51-8.57z"/><path d="m53.29 18.5a16.43 16.43 0 0 0 -13.06 13.07l1.69.32a14.75 14.75 0 0 1 11.69-11.69z"/><path d="m65.47 25.47a12.94 12.94 0 0 0 -6.06-3.47l-.41 1.72a11.32 11.32 0 0 1 8.22 8.22l1.67-.41a12.93 12.93 0 0 0 -3.42-6.06z"/><path d="m53.25 22a13 13 0 0 0 -9.48 9.48l1.67.41a11.32 11.32 0 0 1 8.22-8.22z"/><path d="m67.22 37.28a11.32 11.32 0 0 1 -8.22 8.21l.41 1.67a13 13 0 0 0 9.48-9.48z"/><path d="m45.44 37.28-1.67.41a13 13 0 0 0 9.48 9.48l.41-1.67a11.32 11.32 0 0 1 -8.22-8.22z"/><path d="m53.17 25.66a9.59 9.59 0 0 0 -5.78 5.78l1.61.56a7.85 7.85 0 0 1 4.73-4.73z"/><path d="m59.49 25.66-.58 1.63a7.85 7.85 0 0 1 4.73 4.71l1.63-.58a9.59 9.59 0 0 0 -5.78-5.76z"/><path d="m63.64 37.19a7.85 7.85 0 0 1 -4.73 4.73l.58 1.63a9.59 9.59 0 0 0 5.78-5.78z"/><path d="m49 37.19-1.63.58a9.59 9.59 0 0 0 5.78 5.78l.58-1.63a7.85 7.85 0 0 1 -4.73-4.73z"/><path d="m56.33 28.57a6 6 0 1 0 6 6 6 6 0 0 0 -6-6zm0 10.35a4.31 4.31 0 1 1 4.31-4.31 4.32 4.32 0 0 1 -4.31 4.31z"/><path d="m56.33 32a2.59 2.59 0 1 0 2.59 2.59 2.59 2.59 0 0 0 -2.59-2.59zm0 3.45a.86.86 0 1 1 .86-.86.86.86 0 0 1 -.86.88z"/><path d="m64.38 33.74h10.41v1.72h-10.41z"/><path d="m37.87 33.74h10.41v1.72h-10.41z"/><path d="m55.47 42.65h1.72v10.41h-1.72z"/><path d="m55.47 16.15h1.72v10.41h-1.72z"/><path d="m48.65 51.69h1.72v23.15h-1.72z"/><path d="m23.56 67.72v-8h-5.42l1.34-12.31-.12-.23-1.36-2.69a15.29 15.29 0 0 1 20.39-14.26l.61-1.62a17 17 0 0 0 -22.68 16.07c0 .22 0 .22.8 1.82l.6 1.18-1.5 13.72h5.62v8h9.46v4.6a.86.86 0 0 0 .86.86.86.86 0 0 0 .84-.86v-4.56h6.48a.86.86 0 0 0 .86-.86.86.86 0 0 0 -.86-.86z"/><path d="m26.91 46.55h1.72v1.72h-1.72z" transform="matrix(.70698336 -.70723018 .70723018 .70698336 -25.39 33.53)"/><path d="m24.47 48.99h1.72v1.72h-1.72z" transform="matrix(.70710678 -.70710678 .70710678 .70710678 -27.83 32.51)"/><path d="m31.26 39.32a.86.86 0 0 0 .86.86h1.65l-4.1 4.1a.86.86 0 0 0 0 1.22.86.86 0 0 0 1.22 0l4.11-4.1v1.65a.86.86 0 0 0 .86.86.86.86 0 0 0 .86-.86v-3a1.63 1.63 0 0 0 -1.63-1.63h-3a.86.86 0 0 0 -.83.9z"/><path d="m30.09 58.43h1.72v1.72h-1.72z" transform="matrix(.70710678 -.70710678 .70710678 .70710678 -32.86 39.25)"/><path d="m32.53 55.99h1.72v1.72h-1.72z" transform="matrix(.70710678 -.70710678 .70710678 .70710678 -30.42 40.26)"/><path d="m36.15 49.49a.86.86 0 0 0 .86.86h1.65l-3.36 3.37a.86.86 0 0 0 0 1.22.86.86 0 0 0 1.22 0l3.37-3.37v1.65a.86.86 0 0 0 .86.86.86.86 0 0 0 .86-.86v-3a1.63 1.63 0 0 0 -1.61-1.59h-3a.86.86 0 0 0 -.85.86z"/></g></svg>

<svg id="Слой_1" data-name="Слой 1" xmlns="http://www.w3.org/2000/svg" viewBox="0 0 91 91"><defs><style>.cls-1{fill:#a4d9d1;}</style></defs><title>5</title><g id="item-Page"><g id="Mobile-Icons"><g id="Group-Copy-10"><g id="_5" data-name="5"><path id="Shape" class="cls-1" d="M70.73,37.32A14.75,14.75,0,0,1,59,49l.32,1.69A16.43,16.43,0,0,0,72.43,37.64Z"/><path id="Shape-2" data-name="Shape" class="cls-1" d="M41.92,37.32l-1.69.32A16.43,16.43,0,0,0,53.29,50.71L53.61,49A14.75,14.75,0,0,1,41.92,37.32Z"/><path id="Shape-3" data-name="Shape" class="cls-1" d="M67.91,23a16.31,16.31,0,0,0-8.55-4.52L59,20.2A14.75,14.75,0,0,1,70.73,31.89l1.69-.32A16.31,16.31,0,0,0,67.91,23Z"/><path id="Shape-4" data-name="Shape" class="cls-1" d="M53.29,18.5A16.43,16.43,0,0,0,40.23,31.57l1.69.32A14.75,14.75,0,0,1,53.61,20.2Z"/><path id="Shape-5" data-name="Shape" class="cls-1" d="M65.47,25.47A12.94,12.94,0,0,0,59.41,22L59,23.72a11.32,11.32,0,0,1,8.22,8.22l1.67-.41A12.93,12.93,0,0,0,65.47,25.47Z"/><path id="Shape-6" data-name="Shape" class="cls-1" d="M53.25,22a13,13,0,0,0-9.48,9.48l1.67.41a11.32,11.32,0,0,1,8.22-8.22Z"/><path id="Shape-7" data-name="Shape" class="cls-1" d="M67.22,37.28A11.32,11.32,0,0,1,59,45.49l.41,1.67a13,13,0,0,0,9.48-9.48Z"/><path id="Shape-8" data-name="Shape" class="cls-1" d="M45.44,37.28l-1.67.41a13,13,0,0,0,9.48,9.48l.41-1.67A11.32,11.32,0,0,1,45.44,37.28Z"/><path id="Shape-9" data-name="Shape" class="cls-1" d="M53.17,25.66a9.59,9.59,0,0,0-5.78,5.78L49,32a7.85,7.85,0,0,1,4.73-4.73Z"/><path id="Shape-10" data-name="Shape" class="cls-1" d="M59.49,25.66l-.58,1.63A7.85,7.85,0,0,1,63.64,32l1.63-.58A9.59,9.59,0,0,0,59.49,25.66Z"/><path id="Shape-11" data-name="Shape" class="cls-1" d="M63.64,37.19a7.85,7.85,0,0,1-4.73,4.73l.58,1.63a9.59,9.59,0,0,0,5.78-5.78Z"/><path id="Shape-12" data-name="Shape" class="cls-1" d="M49,37.19l-1.63.58a9.59,9.59,0,0,0,5.78,5.78l.58-1.63A7.85,7.85,0,0,1,49,37.19Z"/><path id="Shape-13" data-name="Shape" class="cls-1" d="M56.33,28.57a6,6,0,1,0,6,6A6,6,0,0,0,56.33,28.57Zm0,10.35a4.31,4.31,0,1,1,4.31-4.31A4.32,4.32,0,0,1,56.33,38.92Z"/><path id="Shape-14" data-name="Shape" class="cls-1" d="M56.33,32a2.59,2.59,0,1,0,2.59,2.59A2.59,2.59,0,0,0,56.33,32Zm0,3.45a.86.86,0,1,1,.86-.86A.86.86,0,0,1,56.33,35.47Z"/><rect id="Rectangle-path" class="cls-1" x="64.38" y="33.74" width="10.41" height="1.72"/><rect id="Rectangle-path-2" data-name="Rectangle-path" class="cls-1" x="37.87" y="33.74" width="10.41" height="1.72"/><rect id="Rectangle-path-3" data-name="Rectangle-path" class="cls-1" x="55.47" y="42.65" width="1.72" height="10.41"/><rect id="Rectangle-path-4" data-name="Rectangle-path" class="cls-1" x="55.47" y="16.15" width="1.72" height="10.41"/><rect id="Rectangle-path-5" data-name="Rectangle-path" class="cls-1" x="48.65" y="51.69" width="1.72" height="23.15"/><path id="Shape-15" data-name="Shape" class="cls-1" d="M23.56,67.72v-8H18.14l1.34-12.31-.12-.23L18,44.49A15.29,15.29,0,0,1,38.39,30.23L39,28.61A17,17,0,0,0,16.32,44.68c0,.22,0,.22.8,1.82l.6,1.18L16.22,61.4h5.62v8H31.3V74a.86.86,0,0,0,.86.86h0A.86.86,0,0,0,33,74V69.44h6.48a.86.86,0,0,0,.86-.86h0a.86.86,0,0,0-.86-.86Z"/><rect id="Rectangle-path-6" data-name="Rectangle-path" class="cls-1" x="26.91" y="46.55" width="1.72" height="1.72" transform="translate(-25.39 33.53) rotate(-45.01)"/><rect id="Rectangle-path-7" data-name="Rectangle-path" class="cls-1" x="24.47" y="48.99" width="1.72" height="1.72" transform="translate(-27.83 32.51) rotate(-45)"/><path id="Shape-16" data-name="Shape" class="cls-1" d="M31.26,39.32h0a.86.86,0,0,0,.86.86h1.65l-4.1,4.1a.86.86,0,0,0,0,1.22h0a.86.86,0,0,0,1.22,0h0L35,41.4v1.65a.86.86,0,0,0,.86.86h0a.86.86,0,0,0,.86-.86v-3a1.63,1.63,0,0,0-1.63-1.63h-3A.86.86,0,0,0,31.26,39.32Z"/><rect id="Rectangle-path-8" data-name="Rectangle-path" class="cls-1" x="30.09" y="58.43" width="1.72" height="1.72" transform="translate(-32.86 39.25) rotate(-45)"/><rect id="Rectangle-path-9" data-name="Rectangle-path" class="cls-1" x="32.53" y="55.99" width="1.72" height="1.72" transform="translate(-30.42 40.26) rotate(-45)"/><path id="Shape-17" data-name="Shape" class="cls-1" d="M36.15,49.49h0a.86.86,0,0,0,.86.86h1.65L35.3,53.72a.86.86,0,0,0,0,1.22h0a.86.86,0,0,0,1.22,0h0l3.37-3.37v1.65a.86.86,0,0,0,.86.86h0a.86.86,0,0,0,.86-.86v-3A1.63,1.63,0,0,0,40,48.63H37A.86.86,0,0,0,36.15,49.49Z"/></g></g></g></g></svg>
